packages/theme-chalk/src/icons/tv.svg

<svg width="12px" height="11px" viewBox="0 0 12 11" version="1.1" xmlns="http://www.w3.org/2000/svg" xmlns:xlink="http://www.w3.org/1999/xlink">
    <g id="Symbols" stroke="none" stroke-width="1" fill-rule="evenodd">
        <g id="icon/services/room/TV" transform="translate(-2.000000, -3.000000)">
            <path d="M3.21575,10.7185938 L12.779,10.7185938 L12.779,4.09384375 L3.21575,4.09384375 L3.21575,10.7185938 Z M2,11.0155938 L2,3.98434375 C2.14475,3.47284375 2.474,3.14584375 2.984,2.99959375 L13.016,2.99959375 C13.526,3.14584375 13.853,3.47509375 14,3.98434375 L14,11.0155938 C13.98425,11.0500937 13.9655,11.0838437 13.95425,11.1198438 C13.763,11.7295937 13.3685,12.1158437 12.73175,12.2395938 C12.3335,12.3168438 11.93675,12.3970937 11.54,12.4773437 C11.12375,12.5613437 10.70825,12.6475937 10.22975,12.7458438 C10.36925,12.8050938 10.44575,12.8350937 10.52075,12.8703437 C10.7945,13.0000938 11.075,13.1185937 11.339,13.2663438 C11.528,13.3720937 11.516,13.4313437 11.3285,13.5468438 L4.67225,13.5468438 C4.48475,13.4290937 4.48175,13.3863437 4.661,13.2625938 C4.7375,13.2093438 4.81925,13.1620938 4.904,13.1238437 C5.1695,13.0023437 5.43725,12.8868438 5.741,12.7518437 C5.66375,12.7285938 5.6225,12.7128438 5.57975,12.7038438 C4.802,12.5470937 4.02425,12.3888437 3.245,12.2373438 C2.7875,12.1480938 2.44325,11.9013437 2.21075,11.5060938 C2.1215,11.3538437 2.069,11.1798437 2,11.0155938 Z" id="tv"></path>
        </g>
    </g>
</svg>

<svg xmlns="http://www.w3.org/2000/svg" width="16" height="16" viewBox="0 0 16 16">
    <g fill-rule="evenodd">
        <path d="M3.216 10.719h9.563V4.094H3.216v6.625zM2 11.016V3.984c.145-.511.474-.838.984-.984h10.032c.51.146.837.475.984.984v7.032c-.016.034-.034.068-.046.104-.191.61-.586.996-1.222 1.12-.398.077-.795.157-1.192.237-.416.084-.832.17-1.31.269.14.06.216.09.29.124.274.13.555.249.819.396.189.106.177.165-.01.28H4.671c-.187-.117-.19-.16-.011-.283.077-.054.158-.1.243-.14.266-.12.533-.236.837-.371-.077-.023-.119-.04-.161-.048-.778-.157-1.556-.315-2.335-.467a1.48 1.48 0 0 1-1.034-.73c-.09-.153-.142-.327-.211-.491z"/>
    </g>
</svg>
